assets/img/codicon_terminal-linux.svg

<svg viewBox="0 0 512 512" fill="none" xmlns="http://www.w3.org/2000/svg"><path d="M424.99 356.992a26.877 26.877 0 0 1 12 9.504c2.688 4 4.576 8.832 5.76 14.496.64 3.328 1.408 6.4 2.24 9.28a56.747 56.747 0 0 0 7.008 15.232c1.504 2.336 3.52 4.896 6.016 7.744 2.144 2.336 4.064 5.344 5.76 8.992a25.37 25.37 0 0 1 2.464 10.496 15.677 15.677 0 0 1-2.976 9.76 30.19 30.19 0 0 1-7.52 7.008 90.284 90.284 0 0 1-12 7.008 377.92 377.92 0 0 0-12.48 6.24 116.014 116.014 0 0 0-17.76 10.496c-4.992 3.68-10.016 8.32-15.008 14.016a90.055 90.055 0 0 1-20 16.736 47.063 47.063 0 0 1-12.256 5.504c-4.16 1.152-8.32 1.92-12.48 2.24-9.664 0-17.664-1.664-24-4.992-6.336-3.328-11.84-9.408-16.512-18.24-1.344-2.528-2.656-4.096-4-4.768a24.725 24.725 0 0 0-6.496-1.76L277.438 480c-8.32-.64-16.8-.992-25.472-.992-7.202.01-14.392.587-21.504 1.728a326.667 326.667 0 0 0-21.76 4.256c-1.472.32-2.976 1.6-4.48 3.744A54.362 54.362 0 0 1 197.95 496a35.4 35.4 0 0 1-10.72 7.008 47.2 47.2 0 0 1-17.76 3.232c-5.504 0-11.424-.576-17.76-1.728a58.26 58.26 0 0 1-16.992-5.76 114.48 114.48 0 0 0-30.496-10.496 653.08 653.08 0 0 0-31.743-4.992 108.42 108.42 0 0 1-11.008-2.016 24.767 24.767 0 0 1-9.28-4.256 22.562 22.562 0 0 1-6.209-7.008 24.96 24.96 0 0 1-2.527-11.232c0-5.184.672-10.176 2.016-15.008 1.344-4.8 2.08-9.92 2.24-15.232 0-3.68-.256-7.264-.736-10.752a112.96 112.96 0 0 1-1.025-11.264c0-8.48 2.017-14.72 6.017-18.752 4-4 9.824-7.168 17.504-9.504a31.69 31.69 0 0 0 9.504-4.736 72.647 72.647 0 0 0 7.488-6.496 59.484 59.484 0 0 0 6.496-7.744 99.417 99.417 0 0 1 6.751-8.512 3.647 3.647 0 0 0 .768-2.24c0-2.016-.096-3.936-.256-5.76l-.511-6.016c0-11.328 1.759-22.72 5.247-34.24 3.52-11.52 8.096-22.72 13.76-33.76a290.905 290.905 0 0 1 19.008-31.744c6.976-10.144 13.92-19.584 20.736-28.256a139.174 139.174 0 0 0 21.76-38.496c4.8-13.312 7.328-27.84 7.488-43.52 0-6.624-.32-13.216-.992-19.712a196.153 196.153 0 0 1-.992-20c0-13.344 1.504-25.344 4.48-36 3.008-10.688 7.68-19.84 14.016-27.52S218.814 10.08 228.958 6.24C239.166 2.4 251.326.32 265.47 0c16.864 0 30.272 3.328 40.288 10.016 9.984 6.656 17.664 15.392 22.976 26.24 5.344 10.816 8.768 22.912 10.24 36.256 1.536 13.312 2.368 26.816 2.528 40.48v4.256c0 6.848.064 12.928.256 18.24a80.866 80.866 0 0 0 7.232 31.264c2.336 5.152 5.824 10.752 10.496 16.736 8 10.528 16.192 21.12 24.512 31.776a333.834 333.834 0 0 1 22.72 32.96c6.848 11.36 12.448 23.2 16.768 35.52 4.352 12.352 6.592 25.664 6.752 40a105.573 105.573 0 0 1-5.248 33.28v-.032ZM215.262 96.512c2.304 0 4.224.576 5.76 1.728a11.414 11.414 0 0 1 3.488 4.768 27.111 27.111 0 0 1 1.728 5.984c.32 2.016.512 4.096.512 6.272a9.006 9.006 0 0 1-.768 4 8.624 8.624 0 0 1-2.24 2.752l-3.008 2.496a25.579 25.579 0 0 0-2.976 2.976A13.692 13.692 0 0 1 212.99 132a68.21 68.21 0 0 0-5.76 3.744 42.008 42.008 0 0 0-4.992 4.256 8.46 8.46 0 0 0-2.24 6.24c0 1.504.736 2.752 2.24 3.744a22.52 22.52 0 0 1 8.512 9.76c1.664 3.84 3.52 7.584 5.504 11.264a30.116 30.116 0 0 0 7.744 9.248c3.168 2.496 8.096 3.744 14.72 3.744h1.536c6.656-.32 12.992-2.08 19.008-5.248a459.35 459.35 0 0 0 17.984-10.016 20.265 20.265 0 0 1 3.264-1.472 11.83 11.83 0 0 0 3.232-1.76l18.24-14.24c.318-1.073.574-2.162.768-3.264.195-1.17.366-2.343.512-3.52a7.54 7.54 0 0 0-1.28-4.48 12.8 12.8 0 0 0-2.976-3.008 10.887 10.887 0 0 0-4.255-1.728 29.036 29.036 0 0 1-4.481-1.28 34.68 34.68 0 0 1-11.264-4.48 46.581 46.581 0 0 0-11.008-4.992c-.64-.192-1.152-.672-1.504-1.504a31.682 31.682 0 0 1-.992-3.008 7.377 7.377 0 0 1-.256-3.264 4.025 4.025 0 0 0-.256-2.496c0-1.984.16-4.064.512-6.24a17.656 17.656 0 0 1 2.24-6.24 13.353 13.353 0 0 1 4-4.48 13.153 13.153 0 0 1 6.496-1.792c5.184 0 8.928 1.92 11.264 5.76 2.336 3.84 3.584 8 3.744 12.48a12.693 12.693 0 0 1-1.248 5.76 12.137 12.137 0 0 0-1.28 5.504c0 1.344.448 2.24 1.28 2.752 1.008.553 2.12.89 3.264.992 3.84 0 6.304-.896 7.488-2.72a17.045 17.045 0 0 0 1.984-8.256c0-3.84-.32-8.096-.96-12.768A42.21 42.21 0 0 0 299.742 92a31.003 31.003 0 0 0-7.744-10.016 18.366 18.366 0 0 0-12.256-3.968c-8.64 0-14.912 2.144-18.752 6.496-3.84 4.32-5.824 10.816-5.984 19.488 0 2.496.16 4.992.48 7.488.32 2.528.512 5.024.512 7.52 0 .832-.096 1.248-.256 1.248a7.025 7.025 0 0 1-1.504-.512c-.996-.404-1.988-.82-2.976-1.248a24.665 24.665 0 0 0-3.776-1.248 16.436 16.436 0 0 0-6.496-.256 32.208 32.208 0 0 1-4 .256c-2.336 0-3.52-.416-3.52-1.248 0-2.496-.128-5.664-.48-9.504-.32-3.84-1.152-7.68-2.496-11.52a31.824 31.824 0 0 0-4.992-9.472c-2.016-2.496-4.992-3.84-8.992-4a10.337 10.337 0 0 0-7.264 2.752 29.006 29.006 0 0 0-5.248 6.496 20.487 20.487 0 0 0-2.752 8.512 172.081 172.081 0 0 1-.992 8 46.726 46.726 0 0 0 2.24 12.992c.832 2.656 1.76 4.992 2.752 7.008.992 1.984 2.176 2.976 3.52 2.976.8 0 1.92-.576 3.232-1.728 1.344-1.184 2.016-2.24 2.016-3.264 0-.512-.256-.832-.768-.992a4.695 4.695 0 0 0-1.504-.256c-1.152 0-2.176-.576-3.008-1.76a15.003 15.003 0 0 1-1.984-4 166.838 166.838 0 0 1-1.504-4.736 18.052 18.052 0 0 1 1.76-12.736c1.504-2.688 4.256-4.096 8.256-4.256ZM160.734 485.76c4 0 7.936-.32 11.776-1.024a31.035 31.035 0 0 0 10.752-4 19.642 19.642 0 0 0 7.488-7.744 30.165 30.165 0 0 0 3.008-12 26.084 26.084 0 0 0-1.504-8.736 30.76 30.76 0 0 0-4.256-8 88.167 88.167 0 0 0-6.496-8.992 88.58 88.58 0 0 1-6.496-9.024 2056.224 2056.224 0 0 1-9.28-13.76 325.595 325.595 0 0 1-8.96-14.24 260.74 260.74 0 0 1-7.52-12.992 84.537 84.537 0 0 0-8.512-12.736 38.485 38.485 0 0 0-6.976-6.752 15.007 15.007 0 0 0-9.28-3.008 13.953 13.953 0 0 0-9.472 3.52 72.358 72.358 0 0 0-8.256 8.48 103.69 103.69 0 0 1-9.504 9.76c-3.52 3.168-8 5.664-13.503 7.488a23.81 23.81 0 0 0-9.984 5.504c-2.337 2.336-3.52 5.92-3.52 10.752 0 3.328.255 6.656.767 9.984.48 3.328.832 6.688.993 10.016 0 4.48-.64 8.736-2.016 12.736a37.024 37.024 0 0 0-1.984 11.744c0 4.512 1.6 7.68 4.736 9.504 3.2 1.856 6.752 3.104 10.752 3.744 5.023.864 9.76 1.504 14.272 2.016 4.479.512 8.895 1.28 13.247 2.24 4.32 1.024 8.64 2.08 12.992 3.264 4.32 1.152 8.928 3.008 13.76 5.504.96.48 2.496 1.088 4.48 1.728l6.752 2.24c2.496.864 4.832 1.536 7.008 2.016a23.74 23.74 0 0 0 4.736.768Zm91.52-30.016c4.672 0 9.664-.48 15.008-1.504a113.262 113.262 0 0 0 31.232-10.752 82.832 82.832 0 0 0 12.992-8.224 7.059 7.059 0 0 0 1.024-1.504 9.717 9.717 0 0 0 .736-2.016v-.256c.992-3.648 1.824-7.68 2.496-12a274.466 274.466 0 0 0 1.76-13.248 287.97 287.97 0 0 1 1.76-13.248c.64-4.32 1.248-8.576 1.728-12.736.672-4.48 1.504-8.832 2.496-12.992 1.024-4.16 2.336-8.096 4-11.776a32.96 32.96 0 0 1 6.752-9.728 49.304 49.304 0 0 1 11.008-8v-.512l-.256-.736a9.284 9.284 0 0 1 1.504-4.768 44.909 44.909 0 0 1 3.744-5.248 18.639 18.639 0 0 1 4.768-4.256 30.354 30.354 0 0 1 5.248-2.496 313.01 313.01 0 0 0-3.264-12 158.571 158.571 0 0 1-3.008-12 227.131 227.131 0 0 0-2.976-15.232 94.305 94.305 0 0 0-3.52-11.52 42.116 42.116 0 0 0-5.76-10.24c-2.464-3.328-5.568-7.36-9.216-12a38.115 38.115 0 0 1-3.776-4.992 17.795 17.795 0 0 1-1.472-6.272 70.105 70.105 0 0 0-1.504-6.496 303.042 303.042 0 0 0-7.744-24 92.958 92.958 0 0 0-5.504-12.256 123.407 123.407 0 0 0-5.504-9.248c-1.664-2.496-3.424-3.744-5.248-3.744-4 0-8.768 1.6-14.272 4.768a601.439 601.439 0 0 0-17.472 10.496c-6.176 3.84-12.16 7.424-18.016 10.752-5.824 3.328-11.072 4.896-15.744 4.736a22.401 22.401 0 0 1-13.76-4.736 71.612 71.612 0 0 1-11.52-11.008c-3.488-4.16-6.4-7.744-8.736-10.752-2.336-3.008-4.064-4.672-5.248-4.992-1.312 0-2.08.992-2.24 2.976a82.237 82.237 0 0 0-.256 6.752v4.256c0 1.024-.16 1.664-.512 2.016-1.824 3.84-3.84 7.584-5.984 11.232a705.044 705.044 0 0 0-6.496 11.264 51.564 51.564 0 0 0-7.008 24.256c0 2.496.16 4.992.512 7.488.32 2.496 1.152 4.928 2.496 7.264l-.512.96a41.79 41.79 0 0 1-4.256 5.024 34.347 34.347 0 0 0-4.224 5.248 89.505 89.505 0 0 0-13.024 29.76 151.86 151.86 0 0 0-4 32.48c0 2.848.192 5.696.512 8.512.32 2.848.512 5.664.512 8.512a16.71 16.71 0 0 1-.256 2.752 16.93 16.93 0 0 0-.256 2.752A23.994 23.994 0 0 1 162.014 356c3.84 2.176 8 4.928 12.48 8.256a91.305 91.305 0 0 1 12.768 11.52c4 4.32 7.808 8.544 11.488 12.736 3.68 4.16 6.336 8.32 8 12.48 1.664 4.16 2.752 7.584 3.232 10.24a14.197 14.197 0 0 1-4 10.528 30.562 30.562 0 0 1-9.984 6.496c2.848 4.992 6.336 9.248 10.496 12.736a57.08 57.08 0 0 0 13.504 8.512c4.832 2.176 10.08 3.744 15.744 4.736a92.911 92.911 0 0 0 16.512 1.504Zm100.256 35.52c3.488 0 6.912-.512 10.24-1.504a52.775 52.775 0 0 0 14.24-6.496c4.352-2.848 8.32-6.336 12-10.528a98.256 98.256 0 0 1 31.264-24l8.256-3.744a69.766 69.766 0 0 0 8.224-4.256 30.742 30.742 0 0 0 5.28-4.224 8.186 8.186 0 0 0 2.496-6.016 9.435 9.435 0 0 0-.768-3.744 18.49 18.49 0 0 0-2.24-3.744 164.76 164.76 0 0 1-6.496-9.76 63.33 63.33 0 0 1-4.768-9.504l-4-9.984a82.012 82.012 0 0 1-3.52-11.264 8.951 8.951 0 0 0-1.728-3.232 16.965 16.965 0 0 0-14.72-7.52 17.053 17.053 0 0 0-8.512 2.24l-8.512 4.768a234.623 234.623 0 0 1-8.992 4.736 20.987 20.987 0 0 1-9.504 2.24 13.154 13.154 0 0 1-8.256-2.464 20.355 20.355 0 0 1-5.504-6.752 71.085 71.085 0 0 1-3.744-8.256L350.238 360a40.263 40.263 0 0 1-4.48 6.016 21.322 21.322 0 0 0-4 6.496c-2.176 4.992-3.52 10.56-4 16.736a478.468 478.468 0 0 1-3.264 28.256 150.392 150.392 0 0 1-6.72 27.52 61.378 61.378 0 0 0-2.016 8.736 92.561 92.561 0 0 0-1.024 9.248c0 8.16 2.528 14.912 7.52 20.256 4.992 5.312 11.744 8 20.256 8Z" fill="#000"/></svg>

<svg viewBox="0 0 512 512" fill="none" xmlns="http://www.w3.org/2000/svg">
<path d="M424.99 356.992C429.827 358.93 433.996 362.232 436.99 366.496C439.678 370.496 441.566 375.328 442.75 380.992C443.39 384.32 444.158 387.392 444.99 390.272C446.559 395.669 448.921 400.802 451.998 405.504C453.502 407.84 455.518 410.4 458.014 413.248C460.158 415.584 462.078 418.592 463.774 422.24C465.338 425.522 466.178 429.101 466.238 432.736C466.362 436.23 465.315 439.665 463.262 442.496C461.175 445.244 458.631 447.615 455.742 449.504C451.902 452.16 447.902 454.496 443.742 456.512C439.582 458.496 435.422 460.576 431.262 462.752C425.042 465.716 419.099 469.229 413.502 473.248C408.51 476.928 403.486 481.568 398.494 487.264C392.675 493.783 385.938 499.421 378.494 504C374.693 506.411 370.566 508.265 366.238 509.504C362.078 510.656 357.918 511.424 353.758 511.744C344.094 511.744 336.094 510.08 329.758 506.752C323.422 503.424 317.918 497.344 313.246 488.512C311.902 485.984 310.59 484.416 309.246 483.744C307.171 482.864 304.986 482.272 302.75 481.984L277.438 480C269.118 479.36 260.638 479.008 251.966 479.008C244.764 479.018 237.574 479.595 230.462 480.736C223.134 481.92 215.87 483.328 208.702 484.992C207.23 485.312 205.726 486.592 204.222 488.736C202.35 491.337 200.251 493.768 197.95 496C194.833 498.968 191.2 501.343 187.23 503.008C181.574 505.218 175.543 506.315 169.47 506.24C163.966 506.24 158.046 505.664 151.71 504.512C145.783 503.481 140.051 501.538 134.718 498.752C125.099 493.832 114.832 490.298 104.222 488.256C94.2065 486.432 83.6465 484.736 72.4785 483.264C68.7769 482.782 65.1027 482.109 61.4705 481.248C58.1152 480.489 54.9547 479.04 52.1905 476.992C49.6539 475.116 47.539 472.728 45.9825 469.984C44.2761 466.488 43.4104 462.642 43.4545 458.752C43.4545 453.568 44.1265 448.576 45.4705 443.744C46.8145 438.944 47.5505 433.824 47.7105 428.512C47.7105 424.832 47.4545 421.248 46.9745 417.76C46.4453 414.025 46.1035 410.265 45.9505 406.496C45.9505 398.016 47.9665 391.776 51.9665 387.744C55.9665 383.744 61.7905 380.576 69.4705 378.24C72.8824 377.207 76.0955 375.606 78.9745 373.504C81.6155 371.512 84.1173 369.341 86.4625 367.008C88.8435 364.616 91.0166 362.025 92.9585 359.264C94.9745 356.416 97.2145 353.568 99.7105 350.752C100.208 350.111 100.479 349.323 100.478 348.512C100.478 346.496 100.382 344.576 100.222 342.752L99.7105 336.736C99.7105 325.408 101.47 314.016 104.958 302.496C108.478 290.976 113.054 279.776 118.718 268.736C124.374 257.762 130.723 247.159 137.726 236.992C144.702 226.848 151.646 217.408 158.462 208.736C167.721 197.145 175.067 184.149 180.222 170.24C185.022 156.928 187.55 142.4 187.71 126.72C187.71 120.096 187.39 113.504 186.718 107.008C186.047 100.363 185.716 93.6872 185.726 87.008C185.726 73.664 187.23 61.664 190.206 51.008C193.214 40.32 197.886 31.168 204.222 23.488C210.558 15.808 218.814 10.08 228.958 6.24C239.166 2.4 251.326 0.32 265.47 0C282.334 0 295.742 3.328 305.758 10.016C315.742 16.672 323.422 25.408 328.734 36.256C334.078 47.072 337.502 59.168 338.974 72.512C340.51 85.824 341.342 99.328 341.502 112.992V117.248C341.502 124.096 341.566 130.176 341.758 135.488C342.056 146.288 344.515 156.918 348.99 166.752C351.326 171.904 354.814 177.504 359.486 183.488C367.486 194.016 375.678 204.608 383.998 215.264C392.318 225.92 399.902 236.928 406.718 248.224C413.566 259.584 419.166 271.424 423.486 283.744C427.838 296.096 430.078 309.408 430.238 323.744C430.281 335.047 428.51 346.283 424.99 357.024V356.992ZM215.262 96.512C217.566 96.512 219.486 97.088 221.022 98.24C222.583 99.496 223.786 101.14 224.51 103.008C225.314 104.93 225.894 106.938 226.238 108.992C226.558 111.008 226.75 113.088 226.75 115.264C226.803 116.638 226.54 118.007 225.982 119.264C225.434 120.326 224.672 121.264 223.742 122.016L220.734 124.512C219.662 125.42 218.667 126.416 217.758 127.488C216.558 129.356 214.922 130.905 212.99 132C211.009 133.15 209.086 134.4 207.23 135.744C205.458 137.03 203.789 138.453 202.238 140C201.464 140.835 200.866 141.819 200.481 142.891C200.096 143.963 199.932 145.103 199.998 146.24C199.998 147.744 200.734 148.992 202.238 149.984C205.97 152.334 208.93 155.728 210.75 159.744C212.414 163.584 214.27 167.328 216.254 171.008C218.238 174.656 220.83 177.728 223.998 180.256C227.166 182.752 232.094 184 238.718 184H240.254C246.91 183.68 253.246 181.92 259.262 178.752C265.246 175.584 271.262 172.256 277.246 168.736C278.289 168.15 279.381 167.657 280.51 167.264C281.673 166.849 282.763 166.256 283.742 165.504L301.982 151.264C302.3 150.191 302.556 149.102 302.75 148C302.945 146.83 303.116 145.657 303.262 144.48C303.319 142.889 302.871 141.321 301.982 140C301.164 138.839 300.158 137.823 299.006 136.992C297.727 136.12 296.276 135.531 294.751 135.264C293.225 134.958 291.727 134.53 290.27 133.984C286.282 133.164 282.469 131.647 279.006 129.504C275.569 127.369 271.869 125.691 267.998 124.512C267.358 124.32 266.846 123.84 266.494 123.008C266.114 122.023 265.782 121.019 265.502 120C265.173 118.945 265.086 117.829 265.246 116.736C265.429 115.898 265.339 115.024 264.99 114.24C264.99 112.256 265.15 110.176 265.502 108C265.848 105.797 266.608 103.68 267.742 101.76C268.718 99.9821 270.086 98.45 271.742 97.28C273.715 96.1287 275.954 95.5111 278.238 95.488C283.422 95.488 287.166 97.408 289.502 101.248C291.838 105.088 293.086 109.248 293.246 113.728C293.288 115.719 292.86 117.692 291.998 119.488C291.144 121.196 290.706 123.082 290.718 124.992C290.718 126.336 291.166 127.232 291.998 127.744C293.006 128.297 294.118 128.634 295.262 128.736C299.102 128.736 301.566 127.84 302.75 126.016C304.097 123.475 304.78 120.635 304.734 117.76C304.734 113.92 304.414 109.664 303.774 104.992C303.141 100.472 301.78 96.0844 299.742 92C297.877 88.1643 295.241 84.7545 291.998 81.984C288.526 79.2251 284.173 77.8157 279.742 78.016C271.102 78.016 264.83 80.16 260.99 84.512C257.15 88.832 255.166 95.328 255.006 104C255.006 106.496 255.166 108.992 255.486 111.488C255.806 114.016 255.998 116.512 255.998 119.008C255.998 119.84 255.902 120.256 255.742 120.256C255.223 120.143 254.719 119.971 254.238 119.744C253.242 119.34 252.25 118.924 251.262 118.496C250.039 117.979 248.777 117.562 247.486 117.248C245.36 116.731 243.151 116.644 240.99 116.992C239.664 117.16 238.328 117.246 236.99 117.248C234.654 117.248 233.47 116.832 233.47 116C233.47 113.504 233.342 110.336 232.99 106.496C232.67 102.656 231.838 98.816 230.494 94.976C229.377 91.5595 227.689 88.3569 225.502 85.504C223.486 83.008 220.51 81.664 216.51 81.504C213.823 81.442 211.218 82.4291 209.246 84.256C207.193 86.1564 205.425 88.3445 203.998 90.752C202.465 93.3519 201.525 96.2585 201.246 99.264C200.978 101.938 200.647 104.605 200.254 107.264C200.383 111.679 201.137 116.053 202.494 120.256C203.326 122.912 204.254 125.248 205.246 127.264C206.238 129.248 207.422 130.24 208.766 130.24C209.566 130.24 210.686 129.664 211.998 128.512C213.342 127.328 214.014 126.272 214.014 125.248C214.014 124.736 213.758 124.416 213.246 124.256C212.762 124.089 212.254 124.003 211.742 124C210.59 124 209.566 123.424 208.734 122.24C207.877 121.013 207.208 119.665 206.75 118.24C206.225 116.669 205.724 115.09 205.246 113.504C204.25 109.187 204.876 104.653 207.006 100.768C208.51 98.08 211.262 96.672 215.262 96.512V96.512ZM160.734 485.76C164.734 485.76 168.67 485.44 172.51 484.736C176.312 484.082 179.958 482.726 183.262 480.736C186.431 478.903 189.025 476.22 190.75 472.992C192.571 469.243 193.595 465.157 193.758 460.992C193.759 458.016 193.25 455.061 192.254 452.256C191.238 449.394 189.804 446.698 187.998 444.256C186.024 441.126 183.854 438.122 181.502 435.264C179.15 432.395 176.98 429.381 175.006 426.24C171.894 421.666 168.801 417.079 165.726 412.48C162.75 408 159.742 403.264 156.766 398.24C154.135 393.983 151.628 389.65 149.246 385.248C146.8 380.754 143.951 376.491 140.734 372.512C138.703 369.976 136.359 367.707 133.758 365.76C131.086 363.752 127.82 362.693 124.478 362.752C120.992 362.701 117.613 363.956 115.006 366.272C112.027 368.868 109.266 371.705 106.75 374.752C103.8 378.21 100.625 381.47 97.2465 384.512C93.7265 387.68 89.2465 390.176 83.7425 392C80.0178 392.999 76.5916 394.888 73.7585 397.504C71.4225 399.84 70.2385 403.424 70.2385 408.256C70.2385 411.584 70.4945 414.912 71.0065 418.24C71.4865 421.568 71.8385 424.928 71.9985 428.256C71.9985 432.736 71.3585 436.992 69.9825 440.992C68.6917 444.774 68.0217 448.74 67.9985 452.736C67.9985 457.248 69.5985 460.416 72.7345 462.24C75.9345 464.096 79.4865 465.344 83.4865 465.984C88.5105 466.848 93.2465 467.488 97.7585 468C102.238 468.512 106.654 469.28 111.006 470.24C115.326 471.264 119.646 472.32 123.998 473.504C128.318 474.656 132.926 476.512 137.758 479.008C138.718 479.488 140.254 480.096 142.238 480.736L148.99 482.976C151.486 483.84 153.822 484.512 155.998 484.992C157.547 485.407 159.134 485.665 160.734 485.76V485.76ZM252.254 455.744C256.926 455.744 261.918 455.264 267.262 454.24C278.143 452.201 288.665 448.579 298.494 443.488C303.071 441.155 307.42 438.402 311.486 435.264C311.891 434.809 312.235 434.303 312.51 433.76C312.829 433.117 313.076 432.441 313.246 431.744V431.488C314.238 427.84 315.07 423.808 315.742 419.488C316.436 415.087 317.023 410.67 317.502 406.24C317.986 401.811 318.573 397.394 319.262 392.992C319.902 388.672 320.51 384.416 320.99 380.256C321.662 375.776 322.494 371.424 323.486 367.264C324.51 363.104 325.822 359.168 327.486 355.488C329.131 351.864 331.419 348.568 334.238 345.76C337.52 342.597 341.225 339.905 345.246 337.76V337.248L344.99 336.512C345.046 334.815 345.566 333.166 346.494 331.744C347.615 329.907 348.866 328.153 350.238 326.496C351.571 324.813 353.184 323.373 355.006 322.24C356.672 321.242 358.429 320.406 360.254 319.744C359.246 315.723 358.157 311.722 356.99 307.744C355.832 303.785 354.828 299.782 353.982 295.744C353.164 290.634 352.171 285.554 351.006 280.512C350.079 276.601 348.904 272.753 347.486 268.992C346.054 265.326 344.115 261.88 341.726 258.752C339.262 255.424 336.158 251.392 332.51 246.752C331.117 245.195 329.854 243.525 328.734 241.76C327.866 239.777 327.367 237.651 327.262 235.488C326.864 233.3 326.362 231.132 325.758 228.992C323.511 220.888 320.927 212.881 318.014 204.992C316.477 200.779 314.638 196.683 312.51 192.736C310.811 189.575 308.974 186.489 307.006 183.488C305.342 180.992 303.582 179.744 301.758 179.744C297.758 179.744 292.99 181.344 287.486 184.512C282.014 187.68 276.158 191.168 270.014 195.008C263.838 198.848 257.854 202.432 251.998 205.76C246.174 209.088 240.926 210.656 236.254 210.496C231.269 210.493 226.426 208.826 222.494 205.76C218.257 202.531 214.393 198.839 210.974 194.752C207.486 190.592 204.574 187.008 202.238 184C199.902 180.992 198.174 179.328 196.99 179.008C195.678 179.008 194.91 180 194.75 181.984C194.572 184.23 194.487 186.483 194.494 188.736V192.992C194.494 194.016 194.334 194.656 193.982 195.008C192.158 198.848 190.142 202.592 187.998 206.24C185.822 209.92 183.678 213.664 181.502 217.504C177.192 224.883 174.784 233.219 174.494 241.76C174.494 244.256 174.654 246.752 175.006 249.248C175.326 251.744 176.158 254.176 177.502 256.512L176.99 257.472C175.706 259.256 174.283 260.935 172.734 262.496C171.158 264.102 169.743 265.86 168.51 267.744C162.39 276.786 157.976 286.872 155.486 297.504C152.99 308.16 151.646 319.008 151.486 329.984C151.486 332.832 151.678 335.68 151.998 338.496C152.318 341.344 152.51 344.16 152.51 347.008C152.501 347.931 152.415 348.851 152.254 349.76C152.094 350.669 152.008 351.589 151.998 352.512C155.555 352.913 158.978 354.105 162.014 356C165.854 358.176 170.014 360.928 174.494 364.256C178.974 367.584 183.262 371.424 187.262 375.776C191.262 380.096 195.07 384.32 198.75 388.512C202.43 392.672 205.086 396.832 206.75 400.992C208.414 405.152 209.502 408.576 209.982 411.232C210.069 413.167 209.758 415.099 209.07 416.909C208.382 418.72 207.332 420.37 205.982 421.76C203.113 424.559 199.72 426.766 195.998 428.256C198.846 433.248 202.334 437.504 206.494 440.992C210.654 444.512 215.166 447.328 219.998 449.504C224.83 451.68 230.078 453.248 235.742 454.24C241.406 455.264 246.942 455.744 252.254 455.744V455.744ZM352.51 491.264C355.998 491.264 359.422 490.752 362.75 489.76C367.794 488.314 372.593 486.125 376.99 483.264C381.342 480.416 385.31 476.928 388.99 472.736C397.684 462.706 408.319 454.542 420.254 448.736L428.51 444.992C431.343 443.757 434.09 442.335 436.734 440.736C438.644 439.526 440.415 438.11 442.014 436.512C442.82 435.733 443.457 434.797 443.886 433.763C444.315 432.728 444.528 431.616 444.51 430.496C444.512 429.209 444.251 427.935 443.742 426.752C443.146 425.42 442.394 424.164 441.502 423.008C439.222 419.833 437.055 416.578 435.006 413.248C433.153 410.219 431.558 407.04 430.238 403.744L426.238 393.76C424.796 390.095 423.619 386.33 422.718 382.496C422.371 381.311 421.783 380.211 420.99 379.264C419.382 376.859 417.185 374.906 414.609 373.589C412.032 372.273 409.162 371.638 406.27 371.744C403.286 371.733 400.351 372.505 397.758 373.984L389.246 378.752C386.284 380.395 383.286 381.974 380.254 383.488C377.307 384.971 374.051 385.739 370.75 385.728C367.8 385.857 364.892 384.989 362.494 383.264C360.194 381.437 358.316 379.134 356.99 376.512C355.568 373.843 354.317 371.085 353.246 368.256L350.238 360C348.935 362.14 347.436 364.154 345.758 366.016C344.045 367.923 342.69 370.124 341.758 372.512C339.582 377.504 338.238 383.072 337.758 389.248C336.926 398.912 335.838 408.32 334.494 417.504C333.125 426.868 330.875 436.082 327.774 445.024C326.89 447.883 326.216 450.803 325.758 453.76C325.262 456.823 324.92 459.91 324.734 463.008C324.734 471.168 327.262 477.92 332.254 483.264C337.246 488.576 343.998 491.264 352.51 491.264V491.264Z" fill="black"/>
</svg>
